dataset/mailspring/icon.svg

<?xml version="1.0" encoding="UTF-8" standalone="no"?>
<!-- Generator: Adobe Illustrator 26.0.2, SVG Export Plug-In . SVG Version: 6.00 Build 0)  -->

<svg
   version="1.0"
   id="Layer_1"
   x="0px"
   y="0px"
   viewBox="0 0 128 128"
   xml:space="preserve"
   width="128"
   height="128"
   xmlns:xlink="http://www.w3.org/1999/xlink"
   xmlns="http://www.w3.org/2000/svg"
   xmlns:svg="http://www.w3.org/2000/svg"><defs
   id="defs76"><linearGradient
     id="linearGradient3724"><stop
       style="stop-color:#5ac8fa;stop-opacity:1;"
       offset="0"
       id="stop3720" /><stop
       style="stop-color:#52ecc7;stop-opacity:1;"
       offset="1"
       id="stop3722" /></linearGradient><linearGradient
     xlink:href="#linearGradient3724"
     id="linearGradient3726"
     x1="120.36771"
     y1="-66.14071"
     x2="224.36771"
     y2="-66.14071"
     gradientUnits="userSpaceOnUse"
     gradientTransform="matrix(0,-1.0295584,1.0470085,0,133.24988,239.46262)" /><linearGradient
     id="a-9"
     gradientUnits="userSpaceOnUse"
     x1="0"
     y1="269.46301"
     x2="118.926"
     y2="269.46301"
     gradientTransform="matrix(1,0,0,0.98333333,0,-168.03333)"><stop
       offset="0"
       stop-color="#e5a50a"
       id="stop1"
       style="stop-color:#787878;stop-opacity:1;" /><stop
       offset="0.414"
       stop-color="#fbdf9b"
       id="stop2"
       style="stop-color:#cbcbcb;stop-opacity:1;" /><stop
       offset="0.81300002"
       stop-color="#e5a50a"
       id="stop3"
       style="stop-color:#787878;stop-opacity:1;" /><stop
       offset="1"
       stop-color="#f8ca5b"
       id="stop4-8"
       style="stop-color:#a9a9a9;stop-opacity:1;" /></linearGradient></defs>
<style
   type="text/css"
   id="style2">
	.st0{fill:url(#SVGID_1_);}
	.st1{fill:url(#SVGID_00000062171159965967627490000013605884846004172698_);}
	.st2{fill:url(#SVGID-2_00000085966066984138215510000013018799571900533434_);}
	.st3{clip-path:url(#SVGID_00000023257072852279316340000004281102206337855156_);}
	.st4{fill:url(#SVGID_00000177446033621631838710000001370584907163434138_);}
	.st5{clip-path:url(#SVGID_00000136385553608229244970000014654043435100792964_);}
	.st6{fill:url(#SVGID_00000126306410582640054500000000964390405037519506_);}
	.st7{fill:url(#SVGID_00000109020757643166282930000006684795936706346369_);}
</style>
<radialGradient
   id="SVGID_1_"
   cx="514.5"
   cy="477.5"
   r="496.5"
   gradientTransform="matrix(1,0,0,-1,-18,974)"
   gradientUnits="userSpaceOnUse">
	<stop
   offset="0.9134"
   style="stop-color:#000000"
   id="stop4" />
	<stop
   offset="1"
   style="stop-color:#000000;stop-opacity:0"
   id="stop6" />
</radialGradient>

<radialGradient
   id="SVGID_00000163033830155146975860000008434547654242457221_"
   cx="512.05908"
   cy="481.87881"
   r="486.27271"
   gradientTransform="matrix(0.11104257,0,0,-0.11104257,7.1350999,117.51141)"
   gradientUnits="userSpaceOnUse">
	<stop
   offset="0.99"
   style="stop-color:#FFFFFF"
   id="stop11" />
	<stop
   offset="0.9951"
   style="stop-color:#FDFDFD"
   id="stop13" />
	<stop
   offset="0.9969"
   style="stop-color:#F6F6F6"
   id="stop15" />
	<stop
   offset="0.9982"
   style="stop-color:#EBEBEB"
   id="stop17" />
	<stop
   offset="0.9992"
   style="stop-color:#DADADA"
   id="stop19" />
	<stop
   offset="1"
   style="stop-color:#C7C7C7"
   id="stop21" />
</radialGradient>

<radialGradient
   id="SVGID-2_00000052072577768947982130000002178866272689676469_"
   cx="512.06152"
   cy="481.87881"
   r="444.12241"
   gradientTransform="matrix(1,0,0,-1,-18,974)"
   gradientUnits="userSpaceOnUse">
	<stop
   offset="0.99"
   style="stop-color:#000000;stop-opacity:0.5"
   id="stop26" />
	<stop
   offset="1"
   style="stop-color:#000000;stop-opacity:0"
   id="stop28" />
</radialGradient>



<radialGradient
   id="SVGID_00000092427181212153090570000016417065628950216588_"
   cx="578.89008"
   cy="482.3703"
   r="353.94269"
   gradientTransform="matrix(0.11104257,0,0,-0.1218248,7.1350999,118.45626)"
   gradientUnits="userSpaceOnUse">
	<stop
   offset="0"
   style="stop-color:#C2C0C2"
   id="stop66" />
	<stop
   offset="1"
   style="stop-color:#EBEBEB"
   id="stop68" />
</radialGradient>

		
	
		
	
<path
   d="M 124,66 C 124,98.584717 97.137,125 64,125 30.863,125 4,98.584717 4,66 4,33.415283 30.863,7 64,7 c 33.137,0 60,26.415283 60,59 z m 0,0"
   fill="url(#a)"
   id="path4"
   style="fill:url(#a-9);stroke-width:0.991632" /><path
   style="fill:#ffffff;fill-opacity:1;stroke-width:0.122349"
   d="M 64.000002,2.9999994 C 97.140039,2.9999994 124,29.412297 124,62.000001 124,94.587706 97.127701,121 64.000002,121 30.872302,121 4.0000001,94.587706 4.0000001,62.000001 4.0000001,29.412297 30.859964,2.9999994 64.000002,2.9999994"
   id="path24" /><path
   style="fill:url(#linearGradient3726);fill-opacity:1;stroke-width:0.11102"
   d="M 9.5555566,62 C 9.5555566,32.429683 33.928481,8.4629628 64,8.4629628 94.07152,8.4629628 118.44444,32.440688 118.44444,62 118.44444,91.559312 94.07152,115.53704 64,115.53704 33.928481,115.53704 9.5555566,91.570317 9.5555566,62"
   id="path24-0" /><path
   id="rect2922-2"
   style="fill:#ffffff;fill-rule:evenodd;stroke-width:1.73768;stroke-linecap:round;stroke-linejoin:round;stroke-miterlimit:1.5;paint-order:stroke fill markers"
   d="m 32.337154,35.221879 29.815353,29.36996 c 0.868757,0.855713 2.26936,0.855712 3.138117,0 L 95.105955,35.221879 Z M 99.482861,38.219031 76.883666,60.479022 99.482861,84.74209 Z M 28.371751,38.62434 V 84.364514 L 49.379134,59.412419 c 0.01497,-0.01783 0.03449,-0.0295 0.04979,-0.04693 z M 53.147485,63.028201 31.483876,88.758916 H 96.10652 L 73.171634,64.135334 66.07461,71.125845 c -1.303124,1.283562 -3.402975,1.283564 -4.706101,0 z" /></svg>

<svg xmlns="http://www.w3.org/2000/svg" xmlns:xlink="http://www.w3.org/1999/xlink" xml:space="preserve" width="128" height="128" viewBox="0 0 128 128"><defs><linearGradient id="b"><stop offset="0" style="stop-color:#5ac8fa;stop-opacity:1"/><stop offset="1" style="stop-color:#52ecc7;stop-opacity:1"/></linearGradient><linearGradient xlink:href="#b" id="d" x1="120.368" x2="224.368" y1="-66.141" y2="-66.141" gradientTransform="matrix(0 -1.02956 1.047 0 133.25 239.463)" gradientUnits="userSpaceOnUse"/><linearGradient id="c" x1="0" x2="118.926" y1="269.463" y2="269.463" gradientTransform="matrix(1 0 0 .98333 0 -168.033)" gradientUnits="userSpaceOnUse"><stop offset="0" stop-color="#e5a50a" style="stop-color:#787878;stop-opacity:1"/><stop offset=".414" stop-color="#fbdf9b" style="stop-color:#cbcbcb;stop-opacity:1"/><stop offset=".813" stop-color="#e5a50a" style="stop-color:#787878;stop-opacity:1"/><stop offset="1" stop-color="#f8ca5b" style="stop-color:#a9a9a9;stop-opacity:1"/></linearGradient></defs><path fill="url(#a)" d="M124 66c0 32.585-26.863 59-60 59S4 98.585 4 66 30.863 7 64 7s60 26.415 60 59m0 0" style="fill:url(#c);stroke-width:.991632"/><path d="M64 3c33.14 0 60 26.412 60 59s-26.872 59-60 59S4 94.588 4 62 30.86 3 64 3" style="fill:#fff;fill-opacity:1;stroke-width:.122349"/><path d="M9.556 62C9.556 32.43 33.928 8.463 64 8.463S118.444 32.441 118.444 62c0 29.56-24.372 53.537-54.444 53.537S9.556 91.57 9.556 62" style="fill:url(#d);fill-opacity:1;stroke-width:.11102"/><path d="m32.337 35.222 29.816 29.37c.868.856 2.269.856 3.138 0l29.815-29.37Zm67.146 2.997-22.6 22.26 22.6 24.263Zm-71.111.405v45.74l21.007-24.952c.015-.017.035-.03.05-.047zm24.775 24.404-21.663 25.73h64.623L73.172 64.136l-7.097 6.99a3.357 3.357 0 0 1-4.706 0z" style="fill:#fff;fill-rule:evenodd;stroke-width:1.73768;stroke-linecap:round;stroke-linejoin:round;stroke-miterlimit:1.5;paint-order:stroke fill markers"/></svg>
